X: 13089
T: Fiona's Arrival
R: jig
M: 6/8
K: Amajor
CEA DFA|BAF Aec|B3 Ace|fae cBA|
CEA DFA|BAF AEF|ABc BAE|CAB A2E:|
|:EDA BBB|BAc eec|dfe cBA|Bce cBA|
EDA BBB|BAc eae|Bce cBA|CAB AAE:|

